X: 1
T: Waltz for Debbie
C: Eric Eid-Reiner
R: waltz
Z: 2018 John Chambers <jc:trillian.mit.edu>
M: 3/4
L: 1/8
K: F#m
|:\
"F#m"a4- af | "E/G#"b6 | "F#m"a4- aa | "E"g2 e2 B2 |\
"D"d4 d2 | "A"c2 A2 E2 | "D"d6 | "E"e6 |
"F#m"a4- af | "E/G#"b6 | "F#m"a4- aa | "E"{a}g2 e2 B2 |\
"D"d4 d2 | "A"c2 A2 E2 | "D/F#"A6 | "E/G#"B6 ||
"D"A2 d2 F2 | "E"{F}G6- | "C#m"G2 c2 G2- | "F#m"G3 A3 |\
"D"A2 G2 [A2F2] | "A"[A4E4] E2 | "D"c4- cd | "E"B6 |
"D"A2 d2 F2 | "E"G2 e4 | "C#m"G2 c2 G2- | "F#m"G3 A3 |\
"D"A2 G2 F2 | "A/C#"E6 | "Bm"A2 G2 F2 | "A/C#"E6 |
"D"A2 G2 [A2F2] | "A"[A4E4] E2 | "D"c6 | "Bm"A6 |\
[1 "E"B6 | "C#m"e6 :|["Last" "E"HB6 | "E"He6 |]
